X:1519
T:Devil Among the tailors Country Dance. GHW.058
O:england
M:2/4
L:1/8
Q:350
S:George H.Watson,MS,Swanton Abbott,Norfolk,1850-1880
R:Reel
A:Norfolk
K:A
eaga eaga|eaga fedc|dfBf dfBf|dfBf gfed|
eaga eaga|eaga fedc|fgaf ecBA|E2G2 A2 z2:|
|:ceAe ceAe|ceAe fedc|dfBf dfBf|dfBf gfed|
ceAe ceAe|ceAe fedc|fgaf ecBA|E2G2 A2 z2:|


